X: 48
T: Missa octavi toni &mdash; Sanctus
C: Gaspar van Weerbeke
%%abc-version 2.0
%%abcx-abcm2ps-target-version 5.9.1 (29 Sep 2008)
%%abc-creator hum2abc beta
%%abcx-conversion-date 2022/03/06 13:05:55
%%abc-copyright Copyright 2016, Kolb, Paul
%%abc-edited-by Zybina, Karina
%%humdrum-veritas 4081966564
%%humdrum-veritas-data 153489923
%%linebreak <none>
%%barnumbers 0
L: 1/4
M: 3/2
N: Derived from Gas0204d-Missa_Octavi_toni-Sanctus.krn
%%staves [1 2 3 4]
V: 1 clef=treble
V: 2 clef=treble-8
V: 3 clef=treble-8
V: 4 clef=bass
K: C
[V:1] G6- | 
[V:2] z6 | 
[V:3] G>ABcBc | 
[V:4] z6 | 
[V:1] G4G2 | 
[V:2] z6 | 
[V:3] Gc2de2 | 
[V:4] z6 | 
[V:1] B2A>GEF- | 
[V:2] z6 | 
[V:3] d4z2 | 
[V:4] z6 | 
[V:1] F/G/A2Bcd- | 
[V:2] z6 | 
[V:3] d3c/B/AB- | 
[V:4] z6 | 
[V:1] d/c/A2G2F | 
[V:2] z6 | 
[V:3] B/A/d2BA2 | 
[V:4] z6 | 
[V:1] ED2B,A,2 | 
[V:2] z6 | 
[V:3] G2DG2^F | 
[V:4] z6 | 
[V:1] z6 | 
[V:2] z6 | 
[V:3] G4z2- | 
[V:4] G,,>A,,B,,C,B,,C, | 
[V:1] z6 | 
[V:2] z6 | 
[V:3] x6 | 
[V:4] G,,C,2D,E,2 | 
[V:1] z6 | 
[V:2] z6 | 
[V:3] B2A>GEF- | 
[V:4] D,4z2 | 
[V:1] z6 | 
[V:2] z6 | 
[V:3] F/G/A2Bcd- | 
[V:4] D,2>B,,2A,,B,,- | 
[V:1] z6 | 
[V:2] z6 | 
[V:3] d/c/A2G2^F | 
[V:4] B,,/A,,/D,2B,,A,,2 | 
[V:1] G6 | 
[V:2] d4e2 | 
[V:3] G2z2B2 | 
[V:4] G,,4G,2 | 
[V:1] A4B2 | 
[V:2] f2efg2 | 
[V:3] c4d2 | 
[V:4] F,2A,2G,2 | 
[V:1] c2c3B/A/ | 
[V:2] e2zfeg- | 
[V:3] c6- | 
[V:4] C,2F,2C,2- | 
[V:1] G2zc>BA/G/ | 
[V:2] g/f/e/d/c4 | 
[V:3] c2e4 | 
[V:4] C,6 | 
[V:1] FDF2E2 | 
[V:2] A2D/E/F/G/A2 | 
[V:3] d4c2 | 
[V:4] D,2zD,A,,2 | 
[V:1] DE>FG2^F | 
[V:2] FG>AB/c/d2 | 
[V:3] Bc>BGA2 | 
[V:4] D,C,E,2D,2 | 
[V:1] G4z2 | 
[V:2] B>cde>df | 
[V:3] G4z2 | 
[V:4] G,,>A,,B,,C,2D, | 
[V:1] z6 | 
[V:2] ed2c2B | 
[V:3] z6 | 
[V:4] C,F,2E,D,2 | 
[V:1] z2z2E2- | 
[V:2] c2e4 | 
[V:3] G2>G2c2 | 
[V:4] C,4C,2- | 
[V:1] EEA2z2 | 
[V:2] c3c2d- | 
[V:3] z2A3B/c/ | 
[V:4] C,C,2<F,2D, | 
[V:1] F3G/A<_BA/ | 
[V:2] d/c/A2cBe | 
[V:3] d>cA2G2 | 
[V:4] D,>E,F,2G,E, | 
[V:1] Ac_BA2G | 
[V:2] A2zd2e | 
[V:3] cAGA_B2 | 
[V:4] F,2G,D,G,2 | 
[V:1] A4B2 | 
[V:2] f2efg2 | 
[V:3] A2c2d2 | 
[V:4] F,2A,2G,2 | 
[V:1] Ac2AG2 | 
[V:2] zg2fge | 
[V:3] fe2d2c | 
[V:4] D,C,2F,E,2 | 
[V:1] FAGFE2 | 
[V:2] f2ed2^c | 
[V:3] z6 | 
[V:4] D,2E,F,G,A, | 
[V:1] D>EFGAG | 
[V:2] d>cAGDE | 
[V:3] z2DEFG | 
[V:4] D,2z2z2 | 
[V:1] cB2AB2 | 
[V:2] FGD2zG | 
[V:3] AG2^FG2 | 
[V:4] z2z2G,,2 | 
[V:1] z2z2zG | 
[V:2] AcBGBc | 
[V:3] z6 | 
[V:4] F,2G,3E, | 
[V:1] AcBGBc | 
[V:2] A2G3F/E/ | 
[V:3] z2d2BA- | 
[V:4] F,2z2z2 | 
[V:1] A2zGA2 | 
[V:2] F2G2z2 | 
[V:3] A/G/FE/D/G2^F | 
[V:4] D,2C,B,,A,,2 | 
[V:1] BcBGA3/F/ | 
[V:2] z2decf- | 
[V:3] GABcA2 | 
[V:4] G,,F,G,E,F,2 | 
[V:1] F>GA_BAG | 
[V:2] f/e/d/c//B//AGA_B/G/ | 
[V:3] d3d2_B | 
[V:4] D,>E,F,G,F,G, | 
[V:1] !fermata!F4 ||  
[V:2] !fermata!d4 ||  
[V:3] !fermata!A4 ||  
[V:4] !fermata!D,4 ||  
[V:1] [M:3/2]F3A>GF- | 
[V:2] [M:3/2]z6 | 
[V:3] [M:3/2]d2>A2d3/c/ | 
[V:4] [M:3/2]z6 | 
[V:1] FEDG2^F | 
[V:2] z6 | 
[V:3] AGFGA2 | 
[V:4] z6 | 
[V:1] G2zGA2 | 
[V:2] z6 | 
[V:3] G>ABc2A | 
[V:4] z6 | 
[V:1] B3c2B/A/ | 
[V:2] z6 | 
[V:3] G2zAEF | 
[V:4] z6 | 
[V:1] G2>A2EF | 
[V:2] z6 | 
[V:3] G2>F2GA | 
[V:4] z6 | 
[V:1] G>FD>E F/G/A- | 
[V:2] z6 | 
[V:3] E>FG>FD3/E/ | 
[V:4] z6 | 
[V:1] A/G<cB/A/G/A2 | 
[V:2] z2z2c2 | 
[V:3] F/G<AG/^F/E/^F2 | 
[V:4] z6 | 
[V:1] B2z2z2 | 
[V:2] Bd>BcBG | 
[V:3] G2zABd- | 
[V:4] G,2>F,2G,3/F,/ | 
[V:1] z2z2zA | 
[V:2] FEFD2C | 
[V:3] dA2G2^F | 
[V:4] D,C,D,B,,A,,2 | 
[V:1] Bd>cA2G- | 
[V:2] D2GFG2 | 
[V:3] G2z2z2 | 
[V:4] G,,2zD,E,2 | 
[V:1] G^FG2z2 | 
[V:2] A2G2G2- | 
[V:3] z2d3d | 
[V:4] D,2G,,2z2 | 
[V:1] B2>B2B2 | 
[V:2] GGG2z2 | 
[V:3] d2z2d2 | 
[V:4] G,,2>G,,2G,,2 | 
[V:1] z2B2B2 | 
[V:2] G2G2g2 | 
[V:3] d2z2d2 | 
[V:4] z2G,,2G,,2 | 
[V:1] A2BABA | 
[V:2] f2dfd/e/f | 
[V:3] c2BcBc | 
[V:4] F,2G,F,G,F, | 
[V:1] BG^F4- | 
[V:2] de2<A2d- | 
[V:3] Bcd4 | 
[V:4] G,E,D,4- | 
[V:1] F2zD2C | 
[V:2] dcA2BA- | 
[V:3] A2z2z2 | 
[V:4] D,6 | 
[V:1] A,2z2F3/G/ | 
[V:2] A/G/F/E/FGA2 | 
[V:3] F>GA_BAd- | 
[V:4] D,>C,A,,G,,D,2 | 
[V:1] A_BAG2^F | 
[V:2] Dd2cd2- | 
[V:3] dGFGA2 | 
[V:4] z2D,E,D,2 | 
[V:1] GEFGF2 | 
[V:2] d2cBd2 | 
[V:3] BGAGA2 | 
[V:4] G,2zE,D,F, | 
[V:1] G2A4 | 
[V:2] edf>e d/c/d | 
[V:3] G2F4 | 
[V:4] E,G,2<D,2F, | 
[V:1] GEF2EA- | 
[V:2] ecd2z2 | 
[V:3] G2A2cd | 
[V:4] E,2D,2E,D, | 
[V:1] AGA2z2 | 
[V:2] zGFDEA- | 
[V:3] _B2A2z2 | 
[V:4] G,2D,2C,A,, | 
[V:1] z2c3A | 
[V:2] AGAc>de/f/ | 
[V:3] z6 | 
[V:4] _B,,2A,,2A,2 | 
[V:1] B2A2EA- | 
[V:2] g2z2cd | 
[V:3] z2c3A | 
[V:4] E,2F,>G,A,3/F,/ | 
[V:1] AGFA2F | 
[V:2] e2c2A2 | 
[V:3] B2A>Bcd- | 
[V:4] E,2zF,2D, | 
[V:1] E2D>EFG- | 
[V:2] z2dBAG | 
[V:3] dcBd2B | 
[V:4] A,2zG,D,G,, | 
[V:1] G^FG4 ||  
[V:2] A2B4 ||  
[V:3] A2G4 ||  
[V:4] D,2G,,4 ||  
[V:1] [M:2/2]z4 | 
[V:2] [M:2/2]z4 | 
[V:3] [M:2/2]G4 | 
[V:4] [M:2/2]G,4- | 
[V:1] z4 | 
[V:2] z4 | 
[V:3] G2A2 | 
[V:4] G,2F,2 | 
[V:1] z4 | 
[V:2] z4 | 
[V:3] B2c2 | 
[V:4] E,4 | 
[V:1] z4 | 
[V:2] z4 | 
[V:3] d4 | 
[V:4] F,2D,2- | 
[V:1] z4 | 
[V:2] z4 | 
[V:3] A3B | 
[V:4] D,2F,2 | 
[V:1] z4 | 
[V:2] z4 | 
[V:3] cde2- | 
[V:4] E,2C,2 | 
[V:1] z4 | 
[V:2] z4 | 
[V:3] e2d2- | 
[V:4] D,4 | 
[V:1] z4 | 
[V:2] z4 | 
[V:3] d2^c2 | 
[V:4] E,4 | 
[V:1] z4 | 
[V:2] z4 | 
[V:3] d4 | 
[V:4] D,3C, | 
[V:1] z4 | 
[V:2] z4 | 
[V:3] z2c2 | 
[V:4] B,,G,,A,,2 | 
[V:1] z4 | 
[V:2] z4 | 
[V:3] d3c | 
[V:4] G,,4 | 
[V:1] z4 | 
[V:2] z2D2 | 
[V:3] BGA2 | 
[V:4] z4 | 
[V:1] z4 | 
[V:2] E2F2 | 
[V:3] G2D2 | 
[V:4] z4 | 
[V:1] z4 | 
[V:2] G2z2 | 
[V:3] E2F2 | 
[V:4] z2D,2 | 
[V:1] z4 | 
[V:2] z4 | 
[V:3] G2z2 | 
[V:4] B,,C,2A,, | 
[V:1] z4 | 
[V:2] D2E2 | 
[V:3] d2Bc- | 
[V:4] G,,2z2 | 
[V:1] z2G2 | 
[V:2] F2G2 | 
[V:3] cAG2 | 
[V:4] z4 | 
[V:1] EF2D | 
[V:2] z4 | 
[V:3] A2B2 | 
[V:4] z4 | 
[V:1] C2D2 | 
[V:2] z4 | 
[V:3] c2zB | 
[V:4] z4 | 
[V:1] zEF2 | 
[V:2] z4 | 
[V:3] c2d2 | 
[V:4] z4 | 
[V:1] E2zD- | 
[V:2] z4 | 
[V:3] zcd2 | 
[V:4] z4 | 
[V:1] D^CDF | 
[V:2] z4 | 
[V:3] e2zd- | 
[V:4] z4 | 
[V:1] E2zD | 
[V:2] z4 | 
[V:3] d^cdf | 
[V:4] z4 | 
[V:1] G>ABA- | 
[V:2] z4 | 
[V:3] e2dc | 
[V:4] z4 | 
[V:1] AG2^F | 
[V:2] z2c2 | 
[V:3] dBA2 | 
[V:4] z4 | 
[V:1] G4 | 
[V:2] ed2B | 
[V:3] G4 | 
[V:4] z4 | 
[V:1] z4 | 
[V:2] A2zB- | 
[V:3] z4 | 
[V:4] F,2A,G,- | 
[V:1] z4 | 
[V:2] BcBd- | 
[V:3] z4 | 
[V:4] G,E,D,2 | 
[V:1] z4 | 
[V:2] d/c/B/A/G2 | 
[V:3] z4 | 
[V:4] F,2E,2 | 
[V:1] z4 | 
[V:2] F>GA_B- | 
[V:3] z4 | 
[V:4] D,4 | 
[V:1] z4 | 
[V:2] BA2G | 
[V:3] z4 | 
[V:4] C,2_B,,2 | 
[V:1] A4 | 
[V:2] A3c- | 
[V:3] z4 | 
[V:4] A,,4 | 
[V:1] G2F2 | 
[V:2] c/d/efd | 
[V:3] z4 | 
[V:4] z4 | 
[V:1] E4 | 
[V:2] e/d/^c/B/^c2 | 
[V:3] z4 | 
[V:4] z4 | 
[V:1] D4 | 
[V:2] d4 | 
[V:3] D3F- | 
[V:4] z4 | 
[V:1] z4 | 
[V:2] c2B2 | 
[V:3] F/G/ABG | 
[V:4] z4 | 
[V:1] z2C2 | 
[V:2] A4 | 
[V:3] A/G/^F/E/^F2 | 
[V:4] z4 | 
[V:1] ED2B, | 
[V:2] G4 | 
[V:3] G4 | 
[V:4] z4 | 
[V:1] A,2zB,- | 
[V:2] F>GAG- | 
[V:3] z4 | 
[V:4] z4 | 
[V:1] B,A,/G,/A,B, | 
[V:2] GED3/E/ | 
[V:3] z4 | 
[V:4] z4 | 
[V:1] A,G,A,2 | 
[V:2] FG2^F | 
[V:3] z4 | 
[V:4] z4 | 
[V:1] z4 | 
[V:2] G4 | 
[V:3] z4 | 
[V:4] z2E,2 | 
[V:1] G2B2- | 
[V:2] z4 | 
[V:3] z4 | 
[V:4] G,3G, | 
[V:1] BBB2 | 
[V:2] B2d2- | 
[V:3] z4 | 
[V:4] G,4 | 
[V:1] z4 | 
[V:2] ddd2- | 
[V:3] D2F2- | 
[V:4] z4 | 
[V:1] z4 | 
[V:2] dcAc- | 
[V:3] FFF2 | 
[V:4] z4 | 
[V:1] z4 | 
[V:2] cdB2 | 
[V:3] F2G2 | 
[V:4] z4 | 
[V:1] z4 | 
[V:2] zA2F | 
[V:3] Ac2d | 
[V:4] z4 | 
[V:1] z2Ac- | 
[V:2] G2z2 | 
[V:3] B2zA- | 
[V:4] z4 | 
[V:1] cdB2 | 
[V:2] z4 | 
[V:3] AG/F/G2 | 
[V:4] z4 | 
[V:1] zA2G/F/ | 
[V:2] Ac2d | 
[V:3] A2FD | 
[V:4] z4 | 
[V:1] G2A2 | 
[V:2] B2Ad- | 
[V:3] E2FD- | 
[V:4] z4 | 
[V:1] FDE2 | 
[V:2] dc/B/A2 | 
[V:3] Dd2^c | 
[V:4] D,2A,2 | 
[V:1] FDG3/F/ | 
[V:2] zB2c- | 
[V:3] d>c B/A/G- | 
[V:4] D,G,2C,- | 
[V:1] E/D/D2^C | 
[V:2] c/B<AG/A- | 
[V:3] GFE2 | 
[V:4] C,D,A,,2 | 
[V:1] D4 | 
[V:2] A/G/^F/E/^F2 | 
[V:3] D4 | 
[V:4] z4 | 
[V:1] z4 | 
[V:2] G4 | 
[V:3] z4 | 
[V:4] G,,4 | 
[V:1] z4 | 
[V:2] z4 | 
[V:3] z4 | 
[V:4] B,,4 | 
[V:1] z4 | 
[V:2] G4 | 
[V:3] z4 | 
[V:4] C,2E,2 | 
[V:1] z4 | 
[V:2] B4 | 
[V:3] z4 | 
[V:4] D,4 | 
[V:1] z4 | 
[V:2] c2e2 | 
[V:3] z4 | 
[V:4] C,4 | 
[V:1] z4 | 
[V:2] d4 | 
[V:3] D4 | 
[V:4] z4 | 
[V:1] z4 | 
[V:2] A4 | 
[V:3] F4 | 
[V:4] z2D,2 | 
[V:1] D4 | 
[V:2] z2d2- | 
[V:3] G2B2 | 
[V:4] B,,2G,,2 | 
[V:1] F4 | 
[V:2] d2d2 | 
[V:3] A4 | 
[V:4] D,4 | 
[V:1] G2B2 | 
[V:2] d3B | 
[V:3] z2G2 | 
[V:4] G,,4 | 
[V:1] A4 | 
[V:2] c2zA | 
[V:3] AF2E/F/ | 
[V:4] z4 | 
[V:1] z2G2 | 
[V:2] B>cdc/B/ | 
[V:3] G4 | 
[V:4] z2G,,2 | 
[V:1] A^F2E/F/ | 
[V:2] A4 | 
[V:3] z4 | 
[V:4] D,4 | 
[V:1] G4 | 
[V:2] z4 | 
[V:3] G2B2- | 
[V:4] G,,4- | 
[V:1] B3c | 
[V:2] z4 | 
[V:3] Bcd2 | 
[V:4] G,,4 | 
[V:1] d2G2 | 
[V:2] z2G2 | 
[V:3] G2zB- | 
[V:4] G,,2G,,2 | 
[V:1] z4 | 
[V:2] DGFE | 
[V:3] BcBA- | 
[V:4] D,E,D,C, | 
[V:1] z4 | 
[V:2] FD2C | 
[V:3] AG2^F | 
[V:4] D,B,,A,,2 | 
[V:1] G2B2- | 
[V:2] D4 | 
[V:3] G2G2 | 
[V:4] G,,4- | 
[V:1] Bcd3/c/ | 
[V:2] z4 | 
[V:3] B3c | 
[V:4] G,,4 | 
[V:1] A>Bc3/B/ | 
[V:2] z4 | 
[V:3] d>cA3/B/ | 
[V:4] z4 | 
[V:1] G2zB- | 
[V:2] z2d3/e/ | 
[V:3] c>BG2 | 
[V:4] z2G,2 | 
[V:1] BcBA- | 
[V:2] fg2e | 
[V:3] dedc | 
[V:4] D,C,G,A, | 
[V:1] AG2^F | 
[V:2] fd3 | 
[V:3] dBA2 | 
[V:4] F,G,D,2 | 
[V:1] G4 |]  
[V:2] d4 |]  
[V:3] G4 |]  
[V:4] G,,4 |]  


